Komodo/apps/scalable/ooo-calc.svg

<?xml version="1.0" encoding="UTF-8" standalone="no"?>
<!-- Created with Inkscape (http://www.inkscape.org/) -->

<svg
   xmlns:dc="http://purl.org/dc/elements/1.1/"
   xmlns:cc="http://creativecommons.org/ns#"
   xmlns:rdf="http://www.w3.org/1999/02/22-rdf-syntax-ns#"
   xmlns:svg="http://www.w3.org/2000/svg"
   xmlns="http://www.w3.org/2000/svg"
   xmlns:xlink="http://www.w3.org/1999/xlink"
   xmlns:sodipodi="http://sodipodi.sourceforge.net/DTD/sodipodi-0.dtd"
   xmlns:inkscape="http://www.inkscape.org/namespaces/inkscape"
   width="96"
   height="96"
   id="svg11037"
   version="1.1"
   inkscape:version="0.48.3.1 r9886"
   sodipodi:docname="ooo-calc.svg">
  <defs
     id="defs11039">
    <linearGradient
       y2="1046.1001"
       x2="47.999954"
       y1="962.62189"
       x1="47.999954"
       gradientTransform="matrix(1.15,0,0,1.15,-7.1999462,-150.65291)"
       gradientUnits="userSpaceOnUse"
       id="linearGradient3886"
       xlink:href="#linearGradient3795"
       inkscape:collect="always" />
    <linearGradient
       id="linearGradient3795">
      <stop
         style="stop-color:#13a6fd;stop-opacity:1;"
         offset="0"
         id="stop3797" />
      <stop
         style="stop-color:#2975b6;stop-opacity:1;"
         offset="1"
         id="stop3799" />
    </linearGradient>
    <linearGradient
       y2="1046.1001"
       x2="47.999954"
       y1="962.62189"
       x1="47.999954"
       gradientTransform="matrix(1.15,0,0,1.15,-7.1999462,-150.65292)"
       gradientUnits="userSpaceOnUse"
       id="linearGradient11642"
       xlink:href="#linearGradient4694"
       inkscape:collect="always" />
    <linearGradient
       x1="48"
       y1="90"
       x2="48"
       y2="5.9877172"
       id="linearGradient3706"
       xlink:href="#linearGradient4694"
       gradientUnits="userSpaceOnUse"
       gradientTransform="translate(12,0)" />
    <linearGradient
       x1="58.650177"
       y1="122"
       x2="58.650177"
       y2="5.4252338"
       id="linearGradient4694"
       gradientUnits="userSpaceOnUse"
       gradientTransform="matrix(1.0172414,0,0,1.0172414,-1.1034483,-1.1034483)"
       spreadMethod="pad">
      <stop
         id="stop4696"
         style="stop-color:#6c8f11;stop-opacity:1"
         offset="0" />
      <stop
         id="stop4698"
         style="stop-color:#c9ed64;stop-opacity:1"
         offset="1" />
    </linearGradient>
    <linearGradient
       x1="58.650177"
       y1="122"
       x2="58.650177"
       y2="5.4252338"
       id="linearGradient4688"
       xlink:href="#linearGradient4682"
       gradientUnits="userSpaceOnUse"
       gradientTransform="matrix(1.0172414,0,0,1.0172414,-1.1034483,-1.1034483)"
       spreadMethod="pad">
      <stop
         id="stop4690"
         style="stop-color:#67831d;stop-opacity:1"
         offset="0" />
      <stop
         id="stop4692"
         style="stop-color:#c2df71;stop-opacity:1"
         offset="1" />
    </linearGradient>
    <linearGradient
       x1="58.650177"
       y1="122"
       x2="58.650177"
       y2="5.4252338"
       id="linearGradient4682"
       xlink:href="#linearGradient4676"
       gradientUnits="userSpaceOnUse"
       gradientTransform="matrix(1.0172414,0,0,1.0172414,-1.1034483,-1.1034483)"
       spreadMethod="pad">
      <stop
         id="stop4684"
         style="stop-color:#67831d;stop-opacity:1"
         offset="0" />
      <stop
         id="stop4686"
         style="stop-color:#c2df71;stop-opacity:1"
         offset="1" />
    </linearGradient>
    <linearGradient
       x1="58.650177"
       y1="122"
       x2="58.650177"
       y2="5.4252338"
       id="linearGradient4676"
       xlink:href="#linearGradient4664"
       gradientUnits="userSpaceOnUse"
       gradientTransform="matrix(1.0172414,0,0,1.0172414,-1.1034483,-1.1034483)"
       spreadMethod="pad">
      <stop
         id="stop4678"
         style="stop-color:#67831d;stop-opacity:1"
         offset="0" />
      <stop
         id="stop4680"
         style="stop-color:#c2df71;stop-opacity:1"
         offset="1" />
    </linearGradient>
    <linearGradient
       x1="58.650177"
       y1="122"
       x2="58.650177"
       y2="5.4252338"
       id="linearGradient4664"
       xlink:href="#linearGradient4658"
       gradientUnits="userSpaceOnUse"
       gradientTransform="matrix(1.0172414,0,0,1.0172414,-1.1034483,-1.1034483)"
       spreadMethod="pad">
      <stop
         id="stop4666"
         style="stop-color:#67831d;stop-opacity:1"
         offset="0" />
      <stop
         id="stop4668"
         style="stop-color:#c2df71;stop-opacity:1"
         offset="1" />
    </linearGradient>
    <linearGradient
       x1="58.650177"
       y1="122"
       x2="58.650177"
       y2="5.4252338"
       id="linearGradient4658"
       gradientUnits="userSpaceOnUse"
       gradientTransform="matrix(1.0172414,0,0,1.0172414,-1.1034483,-1.1034483)">
      <stop
         id="stop4660"
         style="stop-color:#67831d;stop-opacity:1"
         offset="0" />
      <stop
         id="stop4662"
         style="stop-color:#c2df71;stop-opacity:1"
         offset="1" />
    </linearGradient>
    <linearGradient
       x1="18.637215"
       y1="89.20327"
       x2="18.637215"
       y2="6"
       id="linearGradient3708"
       xlink:href="#linearGradient3513"
       gradientUnits="userSpaceOnUse" />
    <linearGradient
       id="linearGradient3513">
      <stop
         id="stop3515"
         style="stop-color:#102340;stop-opacity:1"
         offset="0" />
      <stop
         id="stop3517"
         style="stop-color:#27599c;stop-opacity:1"
         offset="1" />
    </linearGradient>
    <filter
       x="-0.20999999"
       y="-0.28"
       width="1.42"
       height="1.5599999"
       color-interpolation-filters="sRGB"
       id="filter3673">
      <feGaussianBlur
         id="feGaussianBlur3675"
         stdDeviation="2.8" />
    </filter>
    <radialGradient
       cx="48.193913"
       cy="58.66795"
       r="33.906048"
       fx="48.193913"
       fy="58.66795"
       id="radialGradient3787-7"
       xlink:href="#linearGradient3601-2"
       gradientUnits="userSpaceOnUse"
       gradientTransform="matrix(0.9473764,-0.3327843,0.2051643,0.5840656,-9.5004368,28.453781)" />
    <linearGradient
       id="linearGradient3601-2">
      <stop
         id="stop3603-0"
         style="stop-color:#b8d9f4;stop-opacity:1"
         offset="0" />
      <stop
         id="stop3605-5"
         style="stop-color:#ebf4fc;stop-opacity:1"
         offset="1" />
    </linearGradient>
    <radialGradient
       cx="48.241459"
       cy="38.667461"
       r="25.550245"
       fx="48.241459"
       fy="38.667461"
       id="radialGradient3789-0"
       xlink:href="#linearGradient3601-2"
       gradientUnits="userSpaceOnUse"
       gradientTransform="matrix(0.8476225,-0.3415184,0.2499426,0.620338,-2.3137345,16.411146)" />
    <linearGradient
       id="linearGradient3130">
      <stop
         id="stop3132"
         style="stop-color:#b8d9f4;stop-opacity:1"
         offset="0" />
      <stop
         id="stop3134"
         style="stop-color:#ebf4fc;stop-opacity:1"
         offset="1" />
    </linearGradient>
    <clipPath
       clipPathUnits="userSpaceOnUse"
       id="clipPath3868">
      <rect
         x="6"
         y="6.0000038"
         width="84"
         height="84"
         style="fill:url(#linearGradient3872);fill-opacity:1"
         id="rect3870"
         rx="22.826086"
         ry="22.826086" />
    </clipPath>
    <linearGradient
       inkscape:collect="always"
       xlink:href="#linearGradient4694"
       id="linearGradient3872"
       gradientUnits="userSpaceOnUse"
       gradientTransform="matrix(1.05,0,0,1.05,-2.3999508,-1006.579)"
       x1="47.999954"
       y1="962.62189"
       x2="47.999954"
       y2="1046.1001" />
    <clipPath
       clipPathUnits="userSpaceOnUse"
       id="clipPath3009">
      <path
         id="path3011"
         d="m -2,956.36218 -96,0 0,33.5624 96,25.68742 0,-59.24982 z"
         style="opacity:0.15;fill:#ffffff;fill-opacity:1;stroke:none"
         inkscape:connector-curvature="0" />
    </clipPath>
  </defs>
  <sodipodi:namedview
     id="base"
     pagecolor="#ffffff"
     bordercolor="#666666"
     borderopacity="1.0"
     inkscape:pageopacity="0.0"
     inkscape:pageshadow="2"
     inkscape:zoom="3.959798"
     inkscape:cx="33.538031"
     inkscape:cy="59.964634"
     inkscape:document-units="px"
     inkscape:current-layer="layer1"
     showgrid="false"
     inkscape:window-width="1280"
     inkscape:window-height="750"
     inkscape:window-x="0"
     inkscape:window-y="22"
     inkscape:window-maximized="1"
     showguides="true"
     inkscape:guide-bbox="true">
    <sodipodi:guide
       orientation="0,1"
       position="-24.748737,0"
       id="guide11064" />
    <sodipodi:guide
       orientation="0,1"
       position="-23.233509,96"
       id="guide11066" />
    <sodipodi:guide
       orientation="1,0"
       position="0,54.800776"
       id="guide11068" />
    <sodipodi:guide
       orientation="1,0"
       position="96,51.012704"
       id="guide11070" />
    <sodipodi:guide
       orientation="0,1"
       position="-18.94036,48"
       id="guide11072" />
    <sodipodi:guide
       orientation="1,0"
       position="48,79.296975"
       id="guide11074" />
    <sodipodi:guide
       orientation="1,0"
       position="2,75.508903"
       id="guide11076" />
    <sodipodi:guide
       orientation="0,1"
       position="-77.27667,2"
       id="guide11078" />
    <sodipodi:guide
       orientation="1,0"
       position="94,77.781746"
       id="guide11080" />
    <sodipodi:guide
       orientation="0,1"
       position="-65.912454,94"
       id="guide11082" />
  </sodipodi:namedview>
  <metadata
     id="metadata11042">
    <rdf:RDF>
      <cc:Work
         rdf:about="">
        <dc:format>image/svg+xml</dc:format>
        <dc:type
           rdf:resource="http://purl.org/dc/dcmitype/StillImage" />
        <dc:title />
      </cc:Work>
    </rdf:RDF>
  </metadata>
  <g
     inkscape:label="Layer 1"
     inkscape:groupmode="layer"
     id="layer1"
     transform="translate(0,-956.36218)">
    <g
       transform="matrix(1.0952381,0,0,1.0952381,-4.5714286,951.79075)"
       id="g3074"
       clip-path="url(#clipPath3868)">
      <g
         id="layer1-1">
        <rect
           style="fill:url(#linearGradient3706);fill-opacity:1;fill-rule:nonzero;stroke:none"
           id="rect2419"
           y="6"
           x="18"
           ry="6"
           rx="6"
           height="84"
           width="72" />
        <path
           style="fill:url(#linearGradient3708);fill-opacity:1;stroke:none;display:inline"
           id="path2400"
           inkscape:connector-curvature="0"
           d="M 12,6 C 8.676,6 6,8.676 6,12 L 6,12.53125 6,83.46875 6,84 c 0,3.324 2.676,6 6,6 l 0.53125,0 1.75,0 13.4375,0 c 7.39089,-14.512671 8.1682,-26.256563 4,-41.8125 C 27.15238,31.145588 26.38061,21.149961 34.5625,6.03125 L 35.0625,6 15.53125,6 l -3,0 L 12,6 z" />
        <path
           style="opacity:0.3;fill:#000000;fill-opacity:1;stroke:none;display:inline"
           id="path3755"
           inkscape:connector-curvature="0"
           d="M 32.53125,8 C 32.859458,7.3483329 33.199493,6.7020232 33.5625,6.03125 L 34.0625,6 32.53125,8 z M 31.875,9.34375 c -7.430268,14.387763 -6.587556,24.305905 -2.15625,40.84375 3.907688,14.583691 3.472539,25.819738 -2.6875,39.125 7.069338,-14.199366 7.789946,-25.81446 3.6875,-41.125 C 26.494557,32.422609 25.520732,22.682512 31.875,9.34375 z" />
        <path
           style="fill:#0c1b2f;fill-opacity:1;stroke:none;display:inline"
           id="path3521"
           inkscape:connector-curvature="0"
           d="m 34.0625,6 -0.5,0.03125 c -8.18189,15.118711 -7.41012,25.114338 -2.84375,42.15625 4.1682,15.555937 3.39089,27.299829 -4,41.8125 l 1,0 c 7.39089,-14.512671 8.1682,-26.256563 4,-41.8125 C 27.15238,31.145588 26.38061,21.149961 34.5625,6.03125 L 35.0625,6 l -1,0 z" />
        <path
           style="fill:#5e7c10;fill-opacity:1;fill-rule:nonzero;stroke:none;filter:url(#filter3673)"
           id="path3671"
           inkscape:connector-curvature="0"
           d="m 48,58 0,4 0,6 0,4 0,10 4,0 28,0 0,-4 0,-16 0,-4 -4,0 -10,0 -4,0 -10,0 -4,0 z m 4,4 10,0 0,6 -10,0 0,-6 z m 14,0 10,0 0,6 -10,0 0,-6 z m -14,10 10,0 0,6 -10,0 0,-6 z m 14,0 10,0 0,6 -10,0 0,-6 z" />
        <path
           style="fill:#a3c843;fill-opacity:1;fill-rule:nonzero;stroke:none"
           id="rect3669"
           inkscape:connector-curvature="0"
           d="m 48,58 0,4 0,6 0,4 0,10 4,0 28,0 0,-4 0,-16 0,-4 -4,0 -10,0 -4,0 -10,0 -4,0 z m 4,4 10,0 0,6 -10,0 0,-6 z m 14,0 10,0 0,6 -10,0 0,-6 z m -14,10 10,0 0,6 -10,0 0,-6 z m 14,0 10,0 0,6 -10,0 0,-6 z" />
        <path
           style="opacity:0.2;fill:#ffffff;fill-opacity:1;fill-rule:nonzero;stroke:none"
           id="path3762"
           inkscape:connector-curvature="0"
           d="m 36.625,6 -2.0625,0.03125 c -8.18189,15.118711 -7.41012,25.114338 -2.84375,42.15625 4.1682,15.555937 3.39089,27.299829 -4,41.8125 l 1.96875,0 C 36.15288,76.392953 36.69339,65.021045 32.71875,50.1875 28.15238,33.145588 27.38061,23.149961 35.5625,8.03125 L 36.625,6 z" />
      </g>
      <path
         style="fill:url(#radialGradient3787-7);fill-opacity:1;fill-rule:evenodd;stroke:none"
         id="path3597"
         inkscape:connector-curvature="0"
         d="M 10.037308,52.159801 C 9.245814,51.368311 21.835629,32.023724 46.053197,38.921533 56.760624,23.347098 76.975179,26.809542 77.786108,28.214106 78.686814,29.774167 57.734026,28.992825 48,47.292786 28.825082,38.06621 10.939533,53.062026 10.037308,52.159801 z" />
      <path
         style="fill:url(#radialGradient3789-0);fill-opacity:1;fill-rule:evenodd;stroke:none"
         id="path3599"
         inkscape:connector-curvature="0"
         d="M 18.432554,25.696015 C 17.842226,25.0085 26.90898,11.589679 46.063099,18.677908 55.121705,8.5654504 68.918272,12.828338 69.485666,14.010807 70.115887,15.324189 55.942554,12.395003 47.694175,24.569321 32.76571,15.924956 19.105469,26.479722 18.432554,25.696015 z" />
      <path
         style="fill:#ffffff;fill-opacity:1;fill-rule:evenodd;stroke:none"
         id="path3617"
         inkscape:connector-curvature="0"
         d="m 60.96875,12.09375 c -4.652392,0.05053 -10.376947,1.537521 -14.90625,6.59375 -19.154119,-7.088229 -28.215328,6.312486 -27.625,7 0.04696,0.0547 0.174251,0.04538 0.34375,0 1.873215,-3.130367 10.87228,-12.072351 27.28125,-6 7.836774,-8.748481 19.20455,-6.748387 22.5,-5.28125 C 69.228385,14.332875 69.608713,14.226558 69.5,14 69.216303,13.408765 65.621142,12.043223 60.96875,12.09375 z" />
      <path
         style="fill:#ffffff;fill-opacity:1;fill-rule:evenodd;stroke:none"
         id="path3622"
         inkscape:connector-curvature="0"
         d="m 70.21875,26.875 c -7.061296,0.01155 -17.464107,2.297229 -24.15625,12.03125 -24.217568,-6.897809 -36.8227437,12.45851 -36.03125,13.25 0.189082,0.189082 1.276032,-0.411865 2.8125,-1.25 4.257341,-5.426257 15.906619,-15.215783 34.21875,-10 8.229009,-11.969463 22.038769,-12.693014 28.375,-11.75 1.616413,-0.354649 2.5453,-0.588406 2.34375,-0.9375 -0.304098,-0.526712 -3.325722,-1.350679 -7.5625,-1.34375 z" />
      <path
         style="opacity:0.5;fill:#ffffff;fill-opacity:1;fill-rule:evenodd;stroke:none"
         id="path3627"
         inkscape:connector-curvature="0"
         d="m 77,27.78125 c -3.821437,1.140091 -20.586914,2.683405 -29,18.5 -18.123985,-8.720888 -35.088431,4.19453 -37.65625,4.875 -0.284707,0.548175 -0.4070987,0.905402 -0.3125,1 C 10.933475,53.058475 28.825082,38.054674 48,47.28125 57.734026,28.981289 78.681954,29.778811 77.78125,28.21875 77.70435,28.085559 77.401211,27.933464 77,27.78125 z" />
      <path
         style="opacity:0.3;fill:#ffffff;fill-opacity:1;fill-rule:evenodd;stroke:none"
         id="path3633"
         inkscape:connector-curvature="0"
         d="m 68.5625,13.40625 c -3.194317,0.351988 -14.049466,0.082 -20.875,10.15625 -13.886583,-8.04106 -26.647102,0.520169 -28.90625,1.125 -0.313381,0.523697 -0.428355,0.901466 -0.34375,1 0.672915,0.783707 14.321534,-9.769365 29.25,-1.125 C 55.935879,12.388182 70.130223,15.313382 69.5,14 69.42347,13.840508 69.076294,13.634991 68.5625,13.40625 z" />
    </g>
    <rect
       ry="25"
       rx="25"
       id="rect3003"
       style="opacity:0.15;fill:#ffffff;fill-opacity:1"
       height="92"
       width="92"
       y="958.36218"
       x="-96"
       clip-path="url(#clipPath3009)"
       transform="translate(98,3.8281269e-7)" />
  </g>
</svg>

<?xml version="1.0" encoding="UTF-8" standalone="no"?>
<!-- Created with Inkscape (http://www.inkscape.org/) -->
<svg id="svg11037" xmlns:rdf="http://www.w3.org/1999/02/22-rdf-syntax-ns#" xmlns="http://www.w3.org/2000/svg" height="96" width="96" version="1.1" xmlns:cc="http://creativecommons.org/ns#" xmlns:xlink="http://www.w3.org/1999/xlink" xmlns:dc="http://purl.org/dc/elements/1.1/">
 <defs id="defs11039">
  <linearGradient id="linearGradient3706" y2="5.9877" xlink:href="#linearGradient4694" gradientUnits="userSpaceOnUse" x2="48" gradientTransform="translate(12)" y1="90" x1="48"/>
  <linearGradient id="linearGradient4694" y2="5.4252" gradientUnits="userSpaceOnUse" x2="58.65" gradientTransform="matrix(1.0172 0 0 1.0172 -1.1034 -1.1034)" y1="122" x1="58.65">
   <stop id="stop4696" style="stop-color:#6c8f11" offset="0"/>
   <stop id="stop4698" style="stop-color:#c9ed64" offset="1"/>
  </linearGradient>
  <linearGradient id="linearGradient3708" y2="6" gradientUnits="userSpaceOnUse" x2="18.637" y1="89.203" x1="18.637">
   <stop id="stop3515" style="stop-color:#102340" offset="0"/>
   <stop id="stop3517" style="stop-color:#27599c" offset="1"/>
  </linearGradient>
  <filter id="filter3673" height="1.56" width="1.42" color-interpolation-filters="sRGB" y="-.28" x="-0.21">
   <feGaussianBlur id="feGaussianBlur3675" stdDeviation="2.8"/>
  </filter>
  <radialGradient id="radialGradient3787-7" xlink:href="#linearGradient3601-2" gradientUnits="userSpaceOnUse" cy="58.668" cx="48.194" gradientTransform="matrix(.94738 -.33278 .20516 .58407 -9.5004 28.454)" r="33.906"/>
  <linearGradient id="linearGradient3601-2">
   <stop id="stop3603-0" style="stop-color:#b8d9f4" offset="0"/>
   <stop id="stop3605-5" style="stop-color:#ebf4fc" offset="1"/>
  </linearGradient>
  <radialGradient id="radialGradient3789-0" xlink:href="#linearGradient3601-2" gradientUnits="userSpaceOnUse" cy="38.667" cx="48.241" gradientTransform="matrix(.84762 -.34152 .24994 .62034 -2.3137 16.411)" r="25.55"/>
  <clipPath id="clipPath3868" clipPathUnits="userSpaceOnUse">
   <rect id="rect3870" style="fill:url(#linearGradient3872)" rx="22.826" ry="22.826" height="84" width="84" y="6" x="6"/>
  </clipPath>
  <linearGradient id="linearGradient3872" y2="1046.1" xlink:href="#linearGradient4694" gradientUnits="userSpaceOnUse" x2="48" gradientTransform="matrix(1.05 0 0 1.05 -2.4 -1006.6)" y1="962.62" x1="48"/>
  <clipPath id="clipPath3009" clipPathUnits="userSpaceOnUse">
   <path id="path3011" style="opacity:.15;fill:#fff" d="m-2 956.36h-96v33.562l96 25.687v-59.25z"/>
  </clipPath>
 </defs>
 <metadata id="metadata11042">
  <rdf:RDF>
   <cc:Work rdf:about="">
    <dc:format>image/svg+xml</dc:format>
    <dc:type rdf:resource="http://purl.org/dc/dcmitype/StillImage"/>
    <dc:title/>
   </cc:Work>
  </rdf:RDF>
 </metadata>
 <g id="layer1" transform="translate(0 -956.36)">
  <g id="g3074" clip-path="url(#clipPath3868)" transform="matrix(1.0952 0 0 1.0952 -4.5714 951.79)">
   <g id="layer1-1">
    <rect id="rect2419" style="fill:url(#linearGradient3706)" rx="6" ry="6" height="84" width="72" y="6" x="18"/>
    <path id="path2400" d="m12 6c-3.324 0-6 2.676-6 6v0.531 70.938 0.531c0 3.324 2.676 6 6 6h0.53125 1.75 13.438c7.3909-14.513 8.1682-26.257 4-41.812-4.567-17.042-5.338-27.038 2.843-42.157l0.5-0.031h-19.531-3-0.531z" style="fill:url(#linearGradient3708)"/>
    <path id="path3755" d="m32.531 8c0.328-0.6517 0.668-1.298 1.031-1.9688l0.5-0.0312-1.531 2zm-0.656 1.3438c-7.4303 14.388-6.5876 24.306-2.1562 40.844 3.9077 14.584 3.4725 25.82-2.6875 39.125 7.0693-14.199 7.7899-25.814 3.6875-41.125-4.224-15.765-5.198-25.505 1.156-38.844z" style="opacity:.3"/>
    <path id="path3521" d="m34.062 6-0.5 0.03125c-8.1819 15.119-7.4101 25.114-2.8438 42.156 4.1682 15.556 3.3909 27.3-4 41.812h1c7.3909-14.513 8.1682-26.257 4-41.812-4.566-17.041-5.337-27.037 2.844-42.156l0.5-0.031h-1z" style="fill:#0c1b2f"/>
    <path id="path3671" d="m48 58v4 6 4 10h4 28v-4-16-4h-4-10-4-10-4zm4 4h10v6h-10v-6zm14 0h10v6h-10v-6zm-14 10h10v6h-10v-6zm14 0h10v6h-10v-6z" style="filter:url(#filter3673);fill:#5e7c10"/>
    <path id="rect3669" d="m48 58v4 6 4 10h4 28v-4-16-4h-4-10-4-10-4zm4 4h10v6h-10v-6zm14 0h10v6h-10v-6zm-14 10h10v6h-10v-6zm14 0h10v6h-10v-6z" style="fill:#a3c843"/>
    <path id="path3762" d="m36.625 6-2.0625 0.03125c-8.1819 15.119-7.4101 25.114-2.8438 42.156 4.1682 15.556 3.3909 27.3-4 41.812h1.9688c6.466-13.606 7.006-24.978 3.032-39.811-4.567-17.042-5.338-27.038 2.843-42.157l1.063-2.031z" style="opacity:.2;fill:#fff"/>
   </g>
   <path id="path3597" d="m10.037 52.16c-0.7912-0.792 11.799-20.136 36.016-13.238 10.708-15.575 30.922-12.112 31.733-10.708 0.901 1.56-20.052 0.779-29.786 19.079-19.175-9.227-37.06 5.769-37.963 4.867z" style="fill:url(#radialGradient3787-7);fill-rule:evenodd"/>
   <path id="path3599" d="m18.433 25.696c-0.591-0.688 8.476-14.106 27.63-7.018 9.059-10.112 22.855-5.85 23.423-4.667 0.63 1.313-13.543-1.616-21.792 10.558-14.928-8.644-28.589 1.911-29.261 1.127z" style="fill:url(#radialGradient3789-0);fill-rule:evenodd"/>
   <path id="path3617" d="m60.969 12.094c-4.6524 0.05053-10.377 1.5375-14.906 6.5938-19.154-7.0882-28.215 6.3125-27.625 7 0.04696 0.0547 0.17425 0.04538 0.34375 0 1.8732-3.1304 10.872-12.072 27.281-6 7.8368-8.7485 19.205-6.7484 22.5-5.2812 0.665-0.074 1.046-0.18 0.937-0.407-0.284-0.591-3.879-1.957-8.531-1.906z" style="fill:#fff;fill-rule:evenodd"/>
   <path id="path3622" d="m70.219 26.875c-7.0613 0.01155-17.464 2.2972-24.156 12.031-24.218-6.8978-36.823 12.459-36.031 13.25 0.18908 0.18908 1.276-0.41186 2.8125-1.25 4.2573-5.4263 15.907-15.216 34.219-10 8.229-11.969 22.039-12.693 28.375-11.75 1.6164-0.35465 2.5453-0.58841 2.3438-0.9375-0.3041-0.52671-3.3257-1.3507-7.5625-1.3438z" style="fill:#fff;fill-rule:evenodd"/>
   <path id="path3627" d="m77 27.781c-3.8214 1.1401-20.587 2.6834-29 18.5-18.124-8.7209-35.088 4.1945-37.656 4.875-0.28471 0.54818-0.4071 0.9054-0.3125 1 0.901 0.902 18.793-14.101 37.968-4.875 9.734-18.3 30.682-17.502 29.781-19.062-0.077-0.133-0.38-0.286-0.781-0.438z" style="opacity:.5;fill:#fff;fill-rule:evenodd"/>
   <path id="path3633" d="m68.562 13.406c-3.1943 0.35199-14.049 0.082-20.875 10.156-13.887-8.0411-26.647 0.52017-28.906 1.125-0.31338 0.5237-0.42836 0.90147-0.34375 1 0.67292 0.78371 14.322-9.7694 29.25-1.125 8.249-12.174 22.443-9.249 21.813-10.562-0.077-0.159-0.424-0.365-0.938-0.594z" style="opacity:.3;fill:#fff;fill-rule:evenodd"/>
  </g>
  <rect id="rect3003" style="opacity:.15;fill:#fff" transform="translate(98 3.8281e-7)" clip-path="url(#clipPath3009)" rx="25" ry="25" height="92" width="92" y="958.36" x="-96"/>
 </g>
</svg>
